X:638
T:Eagle's Whistle, The
S:Karen Marshalsay, Edinburgh
Z:Nigel Gatherer
L:1/8
M:3/4
K:G
B2 dBAG | B2 dBAG | A2 ABAG | A3 BAG | B2 dBAG |
B2 dBAB | G3  BAB | G3 BAG  |1 G3 GBd :|2 e2 degd | 
e2 dBAG | A2 ABAG | A3 GBd  | e2 degd |
e2 dG |  G3 BAB |1 G3 GBd :|2 G6 |]
